symbolic/64x64/apps/freedesktop.svg

<svg xmlns="http://www.w3.org/2000/svg" width="64" height="64"><rect style="opacity:.2" width="56" height="44" x="4" y="12" rx="8" ry="8"/><rect style="fill:#5496c6" width="56" height="44" x="4" y="11" rx="8" ry="8"/><path style="fill:none;stroke:#84c4f6;stroke-width:2" d="m19 25 27 5-16 15z"/><rect style="fill:#5496c6" width="18" height="16" x="10" y="17" rx="1.6" ry="1.6"/><rect style="fill:#5496c6" width="10" height="8" x="25" y="41" rx="1.6" ry="1.6"/><rect style="fill:#5496c6" width="16" height="14" x="38" y="23" rx="1.6" ry="1.6"/><rect style="opacity:.2" width="16" height="14" x="11" y="19" rx="1.6" ry="1.6"/><rect style="opacity:.2" width="8" height="6" x="26" y="43" rx="1.6" ry="1.6"/><rect style="opacity:.2" width="14" height="12" x="39" y="25" rx="1.6" ry="1.6"/><rect style="fill:#fff" width="16" height="14" x="11" y="18" rx="1.6" ry="1.6"/><rect style="fill:#fff" width="8" height="6" x="26" y="42" rx="1.6" ry="1.6"/><rect style="fill:#fff" width="14" height="12" x="39" y="24" rx="1.6" ry="1.6"/><path style="opacity:.2;fill:#fff" d="M12 11c-4.432 0-8 3.568-8 8v1c0-4.432 3.568-8 8-8h40c4.432 0 8 3.568 8 8v-1c0-4.432-3.568-8-8-8H12z"/></svg>

<svg xmlns="http://www.w3.org/2000/svg" width="64" height="64" version="1.1">
 <rect style="opacity:0.2" width="56" height="44" x="4" y="12" rx="8" ry="8"/>
 <rect style="fill:#5496c6" width="56" height="44" x="4" y="11" rx="8" ry="8"/>
 <path style="fill:none;stroke:#84c4f6;stroke-width:2" d="M 19,25 46,30 30,45 Z"/>
 <rect style="fill:#5496c6" width="18" height="16" x="10" y="17" rx="1.6" ry="1.6"/>
 <rect style="fill:#5496c6" width="10" height="8" x="25" y="41" rx="1.6" ry="1.6"/>
 <rect style="fill:#5496c6" width="16" height="14" x="38" y="23" rx="1.6" ry="1.6"/>
 <rect style="opacity:0.2" width="16" height="14" x="11" y="19" rx="1.6" ry="1.6"/>
 <rect style="opacity:0.2" width="8" height="6" x="26" y="43" rx="1.6" ry="1.6"/>
 <rect style="opacity:0.2" width="14" height="12" x="39" y="25" rx="1.6" ry="1.6"/>
 <rect style="fill:#ffffff" width="16" height="14" x="11" y="18" rx="1.6" ry="1.6"/>
 <rect style="fill:#ffffff" width="8" height="6" x="26" y="42" rx="1.6" ry="1.6"/>
 <rect style="fill:#ffffff" width="14" height="12" x="39" y="24" rx="1.6" ry="1.6"/>
 <path style="opacity:0.2;fill:#ffffff" d="M 12 11 C 7.568 11 4 14.568 4 19 L 4 20 C 4 15.568 7.568 12 12 12 L 52 12 C 56.432 12 60 15.568 60 20 L 60 19 C 60 14.568 56.432 11 52 11 L 12 11 z"/>
</svg>
